local/share/icons/dracula-icons-main/24/devices/drive-harddisk-root.svg

<svg width="24" height="24" version="1.1" viewBox="0 0 24 24" xmlns="http://www.w3.org/2000/svg">
 <defs>
  <style id="current-color-scheme" type="text/css">.ColorScheme-Text { color:#727272; } .ColorScheme-Highlight { color:#5294e2; }</style>
 </defs>
 <path class="ColorScheme-Text" d="m7 5c-1 0-1 1-1 1v12s0 1 1 1h10s1 0 1-1v-12s0-1-1-1zm5 2c5.3333 0 5.3333 8 0 8h-4v-4c0-2.2091 1.7909-4 4-4zm0 1-3 6h1l3-6zm0 5v1h2v-1z" color="#727272" fill="currentColor"/>
</svg>

<?xml version="1.0" encoding="UTF-8"?>
<svg xmlns="http://www.w3.org/2000/svg" xmlns:xlink="http://www.w3.org/1999/xlink" width="24" height="24" viewBox="0 0 24 24">
<path fill-rule="nonzero" fill="rgb(44.705882%, 44.705882%, 44.705882%)" fill-opacity="1" d="M 7 5 C 6 5 6 6 6 6 L 6 18 C 6 18 6 19 7 19 L 17 19 C 17 19 18 19 18 18 L 18 6 C 18 6 18 5 17 5 Z M 12 7 C 17.332031 7 17.332031 15 12 15 L 8 15 L 8 11 C 8 8.789062 9.789062 7 12 7 Z M 12 8 L 9 14 L 10 14 L 13 8 Z M 12 13 L 12 14 L 14 14 L 14 13 Z M 12 13 "/>
</svg>
